!!!OTL: Die Waise.
!!!OTL-incipit:DER FRUEHLING KEHRET WIEDER
!!!COM: R. Schumann
!!!ARE: Europa, Mitteleuropa, Deutschland
!!!SCT: F0283
!!!TXL: @@DE
!!!YEM: Copyright 1995, estate of Helmut Schaffrath.
**kern	**text
*ICvox	*
*M2/4	*
*k[]	*
*a:	*
!LO:TX:a:t=Langsam.	!
8r	.
{8e	1._Der
=1	=1
8.cc	Früh-
16cc	-ling
8b	keh-
8f	-ret
=2	=2
8a	wie-
8g#	-der
8r}	.
{8b	und
=3	=3
8cc	Al-
8a	-les
8.b/	freu-
16b/	-et
=4	=4
8a	ſich;
8r	.
8r}	.
{8ee	ich
=5	=5
8.ff	bli-
16dd	-cke
8cc	trau-
8b	-rig
=6	=6
8ee	nie-
8a	-der,
8r}	.
{8dd	er
=7	=7
8g#	kam
8a	ja
8.b	nicht
16b	für
=8	=8
4a}	mich.
==:||	==:||
!!!AGN: Jugend - Lied, Trauer, Toten - Klage
!!!ONB: ESAC (Essen Associative Code) Database: FINK
!!!AMT: simple duple
!!!AIN: vox
!!!EED: Helmut Schaffrath
!!!EEV: 1.0
!!Text: H. v. Fallersleben
!!!source: Musikalischer Hausschatz der Deutschen. Eine Sammlung von über 1000 Liedern und Gesängen mit Singstimmen und Klavierbegleitung. Leipzig, Litterarisches Verlags-Haus.
!!!page: 169
!!!ENC: Anna Maria Matuszewska
!!!EEV: 2025/03/13
*-	*-
